X:1
T:Title
%%score { ( 1 4 ) | ( 2 3 5 ) }
L:1/8
Q:1/4=116
M:4/4
K:F
V:1 treble nm="Grand Piano"
V:4 treble 
V:2 bass 
V:3 bass 
V:5 bass 
V:1
 D2 A2 [EG]2 E2 | F2 G2 F4 | D2 G2 F2 D2 | E2 F2 E4 | F2 E2 D2 F2 | A2 c2 [Gc]2 [GB]2 | %6
w: ????~???? * * *||||||
 [GB]2 E2 F2 G2 | A8[K:bass] | D2[K:treble] A2 [EG]2 E2 | F2 G2 F4 | D2 G2 F2 D2 | E2 F2 E4 | %12
w: ||||||
 F2 E2 D2 F2 | A2 c2 [Gc]2 [GB]2 | [GB]2 E2 F2 E2 | D8 | [FA]2 A2 A2 [FA]2 | z4 B4 | %18
w: ||||||
 [EG]2 G2 G2 [G,B,EG]2 | z4 A4 | G2 B2 A2 G2 | F2 ED E2 ^C2 | ^C2 G2 F2 E2 | z4 A4 | %24
w: ||||||
 [FA]2 A2 A2 [FA]2 | z4 B4 | [EG]2 G2 G2 [G,B,EG]2 | z4 A4 | G2 B2 A2 G2 | F2 ED E2 ^C2 | %30
w: ||||||
 ^C2 G2 F2 E2 | D8 |] %32
w: ||
V:2
 z2 F2 [D,G,B,]4 | [D,F,A,D]2 [D,G,B,D]2 [D,F,A,D]4 | z2 D2 D2 z2 | %3
 [^C,G,A,]2 [D,F,A,]2 [C,G,A,]4 | D2 z2 z2 D2 | D2 F2 [D,G,B,]4 | [D,G,B,]6 [D,G,B,D]2 | [F,A,D]8 | %8
 z2 F2 [D,G,B,]4 | [D,F,A,D]2 [D,G,B,D]2 [D,F,A,D]4 | z2 D2 D2 z2 | %11
 [^C,G,A,]2 [D,F,A,]2 [C,G,A,]4 | D2 z2 z2 D2 | D2 F2 [D,G,B,]4 | [D,G,B,]4 [D,F,A,]2 [^C,G,A,]2 | %15
 [D,F,A,]8 | z2[K:treble] F2 F2[K:bass] [D,F,A,]2 | z4[K:treble] G4[K:bass] | z2 E2 E2 C,2 | %19
 z4[K:treble] F4[K:bass] | [D,G,B,D]6 [D,G,B,D]2 | D2 z2 [^C,G,A,]4 | %22
 z2 E2 [D,F,A,D]2 [^C,G,A,^C]2 | z2[K:treble] DE F2[K:bass] [D,F,A,D]2 | %24
 z2[K:treble] F2 F2[K:bass] [D,F,A,]2 | z4[K:treble] G4[K:bass] | z2 E2 E2 C,2 | %27
 z4[K:treble] F4[K:bass] | [D,G,B,D]6 [D,G,B,D]2 | D2 z2 [^C,G,A,]4 | %30
 z2 E2 [D,F,A,D]2 [^C,G,A,^C]2 | [D,F,A,]8 |] %32
V:3
 [D,F,A,]4 z4 | x8 | [D,F,A,]4 [D,F,A,]4 | x8 | [D,F,A,]8 | [D,F,A,]4 z4 | x8 | D,4 z4 | %8
 [D,F,A,]4 z4 | x8 | [D,F,A,]4 [D,F,A,]4 | x8 | [D,F,A,]8 | [D,F,A,]4 z4 | x8 | x8 | %16
 [D,F,A,]6[K:treble][K:bass] z2 | z2[K:treble] G2 z2[K:bass] [D,G,]2 | [C,G,B,]6 z2 | %19
 z2[K:treble] F2 z2[K:bass] [C,F,]2 | x8 | [D,F,A,]4 z4 | [^C,G,A,]4 z4 | %23
 [D,F,A,]6[K:treble][K:bass] z2 | [D,F,A,]6[K:treble][K:bass] z2 | %25
 z2[K:treble] G2 z2[K:bass] [D,G,]2 | [C,G,B,]6 z2 | z2[K:treble] F2 z2[K:bass] [C,F,]2 | x8 | %29
 [D,F,A,]4 z4 | [^C,G,A,]4 z4 | x8 |] %32
V:4
 x8 | x8 | x8 | x8 | x8 | x8 | x8 | z4[K:bass] D,4 | x2[K:treble] x6 | x8 | x8 | x8 | x8 | x8 | %14
 x8 | x8 | x8 | [Gd]2 c2 z2 B,2 | x8 | [Fc]2 B2 z2 A,2 | x8 | x8 | x8 | DEFG z2 F2 | x8 | %25
 [Gd]2 c2 z2 B,2 | x8 | [Fc]2 B2 z2 A,2 | x8 | x8 | x8 | x8 |] %32
V:5
 x8 | x8 | x8 | x8 | x8 | x8 | x8 | x8 | x8 | x8 | x8 | x8 | x8 | x8 | x8 | x8 | %16
 x2[K:treble] x4[K:bass] x2 | [D,G,B,]6[K:treble][K:bass] z2 | x8 | %19
 [C,F,A,]6[K:treble][K:bass] z2 | x8 | x8 | x8 | x2[K:treble] x4[K:bass] x2 | %24
 x2[K:treble] x4[K:bass] x2 | [D,G,B,]6[K:treble][K:bass] z2 | x8 | %27
 [C,F,A,]6[K:treble][K:bass] z2 | x8 | x8 | x8 | x8 |] %32

